!!!COM: Bach, Johann Sebastian
!!!CDT: 1685/3//-1750/7/28/
!!!OTL@@DE: Dank sei Gott in der Hoehe
!!!OTL@EN:  Thanks be to God in the highest
!!!AGN: 4-Part Chorale
!!!SCT: Erk 311
!!!SCT: BWV 287
!!!YEC: Copyright 2003 by Craig Stuart Sapp
!!!license: GNU General Public License (http://www.gnu.org/copyleft/gpl.html)
!!!SMA: 371 Bach Chorales, edited by Ludwig Erk, C.F. Peters
!!!PDT: 1850, 1865
!!!ONB: Harmony and Root analysis done manually by Craig Sapp
**kern	**kern	**kern	**kern	**root	**harm	**kern
!bass	!tenor	!alto	!soprno	!	!	!
*Iorgan	*Iorgan	*Iorgan	*Iorgan	*Iorgan	*	*Iorgan
*clefF4	*clefF4	*clefG2	*clefG2	*	*	*
*M4/4	*M4/4	*M4/4	*M4/4	*M4/4	*M4/4	*M4/4
*met(C)	*met(C)	*met(C)	*met(C)	*met(C)	*met(C)	*met(C)
*MM60	*MM60	*MM60	*MM60	*MM60	*MM60	*MM60
*k[b-]	*k[b-]	*k[b-]	*k[b-]	*k[b-]	*k[b-]	*k[b-]
*>[A,A,B]	*>[A,A,B]	*>[A,A,B]	*>[A,A,B]	*>[A,A,B]	*>[A,A,B]	*>[A,A,B]
*>A	*>A	*>A	*>A	*>A	*>A	*>A
*F:	*F:	*F:	*F:	*F:	*F:	*F:
4E	4c	4g	4cc	4CC	Vb	4c 4E 4g
=1	=1	=1	=1	=1	=1	=1
8F	4c	8f	4a	4FF	I	4F 4a 4cc
8E-	.	8g	.	.	.	.
8D	4e-	4a	4cc	4AA	viiob/IV	4a 4C 4ee-
8C	.	.	.	.	.	.
4BB-	4f	8b-	4dd	4BB-	IV	4B- 4dd 4ff
.	.	8a	.	.	.	.
4C	4en	8g	4cc	4CC	V	4C 4e 4g
.	.	8a	.	.	.	.
=2	=2	=2	=2	=2	=2	=2
4D	4f	8b-	2b-	4BB-	IVb	4b- 4D 4ff
.	.	8a	.	.	.	.
4En	4c	4g	.	4CC	V7b	4c 4E 4g 4b-
4F;	4c;	4f;	4a;	4FF;	I;	4F; 4a; 4cc;
4F	4c	4f	4a	4FF	I	4F 4a 4cc
=3	=3	=3	=3	=3	=3	=3
8B-	4c	4e	4g	4CC	V7d	4c 4e 4g 4B-
8A	.	.	.	.	.	.
8G	4c	4f	4a	4FF	I	4F 4a 4cc
8F	.	.	.	.	.	.
4c	8c	4f	4g	2CC	V7	2C 2e 2g 2b-
.	16B-	.	.	.	.	.
.	16A	.	.	.	.	.
4C	4B-	4e	4g	.	.	.
=4	=4	=4	=4	=4	=4	=4
2.F;	2.A;	2.c;	2.f;	2.FF;	I;	2.F; 2.a; 2.cc;
=:|!	=:|!	=:|!	=:|!	=:|!	=:|!	=:|!
*>B	*>B	*>B	*>B	*>B	*>B	*>B
8E	4G	8c	4g	4CC	Vb	4c 4E 4g
8D	.	8d	.	.	.	.
=5	=5	=5	=5	=5	=5	=5
8C	4c	4e	4g	4CC	V	4C 4e 4g
8c	.	.	.	.	.	.
8B-	4F	4c	4a	4FF	I	4F 4a 4cc
8A	.	.	.	.	.	.
8G	8B-	4d	4b-	4GG	ii	4G 4b- 4dd
8F	8A	.	.	.	.	.
4E	4G	4c	8cc	4CC	Vb	4c 4E 4g
.	.	.	8b-	.	.	.
=6	=6	=6	=6	=6	=6	=6
4F	8A	4.c	2a	4.FF	I	4.F 4.a 4.cc
.	8G	.	.	.	.	.
8AA	4F	.	.	.	.	.
8BB-	.	8d	.	8BB-	IV7	8B- 8dd 8ff 8aa
4C;	4c;	4e;	4g;	4CC;	V;	4C; 4e; 4g;
*C:	*C:	*C:	*C:	*C:	*C:	*C:
4C	4c	4e	4g	4CC	I	4C 4e 4g
=7	=7	=7	=7	=7	=7	=7
8F	8c	4f	8a	8FF	IV	8F 8a 8cc
8E	8d	.	8bn	8BB	viiob	8b 8D 8ff
8D	4e	4g	4cc	4CC	I	4C 4e 4g
8C	.	.	.	.	.	.
4F	4.d	4a	8dd	4DD	ii	4D 4f 4a
.	.	.	8cc	.	.	.
4G	.	4g	4b	4GG	V7	4G 4b 4dd 4ff
.	16e	.	.	.	.	.
.	16f	.	.	.	.	.
=8	=8	=8	=8	=8	=8	=8
2.C;	2.e;	2.g;	2.cc;	2.CC;	I;	2.C; 2.e; 2.g;
*F:	*F:	*F:	*F:	*F:	*F:	*F:
4C	4G	4e	4cc	4CC	V	4C 4e 4g
=9	=9	=9	=9	=9	=9	=9
8F	4A	4c	4a	4FF	I	4F 4a 4cc
4E-	.	.	.	.	.	.
.	4A	4f	4cc	4FF	V7d/IV	4f 4a 4cc 4E-
16D	.	.	.	.	.	.
16C	.	.	.	.	.	.
8BB-	4B-	4f	4dd	4BB-	IV	4B- 4dd 4ff
8A	.	.	.	.	.	.
8G	4A	4e-	4cc	4FF#	viio7/II	4F# 4a 4cc 4ee
8F#	.	.	.	.	.	.
=10	=10	=10	=10	=10	=10	=10
8G	8B-	4.d	2b-	2GG	ii	2G 2b- 2dd
8A	8c	.	.	.	.	.
8B-	4d	.	.	.	.	.
8c	.	8e	.	.	.	.
4d;	4d;	4f#;	4a;	4DD;	V/II;	4D; 4f#; 4a;
8d	4fn	4d	4a	4DD	vi	4D 4f 4a
8c	.	.	.	.	.	.
=11	=11	=11	=11	=11	=11	=11
8B-	4c	4e	4g	4CC	V7d	4c 4e 4g 4B-
8A	.	.	.	.	.	.
8G	4c	4f	4a	4FF	I	4F 4a 4cc
8F	.	.	.	.	.	.
4c	8c	4f	4g	2CC	V7	2C 2e 2g 2b-
.	16B-	.	.	.	.	.
.	16A	.	.	.	.	.
4C	4B-	4e	4g	.	.	.
=12	=12	=12	=12	=12	=12	=12
2.F;	2.A;	2.c;	2.f;	2.FF;	I;	2.F; 2.a; 2.cc;
==|!	==|!	==|!	==|!	==|!	==|!	==|!
*-	*-	*-	*-	*-	*-	*-
